img/svg/about-decor-door.svg

<svg width="535" height="535" viewBox="0 0 535 535" fill="none" xmlns="http://www.w3.org/2000/svg"><g clip-path="url(#clip0)" fill="#EFEAE1"><path d="M7.432 260.58l2.81-.997 2.447 7.523-2.447 7.523-2.81-.997 2.175-6.526-2.175-6.526zm13.142-13.142l2.81-.997 6.889 20.665-6.889 20.665-2.81-.997 6.617-19.668-6.617-19.668zm13.234-13.233l2.81-.997 11.238 33.898-11.239 33.898-2.81-.997 10.968-32.901-10.967-32.901z"/><path d="M46.95 221.063l2.81-.997 15.68 47.04-15.68 47.041-2.81-.997 15.408-46.044-15.408-46.043z"/><path d="M73.053 194.053l2.81.997-8.43 25.106 15.59 46.95-15.59 46.95 8.43 25.106-2.81.997-8.792-26.194 15.68-46.859-15.68-46.859 8.792-26.194z"/><path d="M96.8 171.213l2.81-.997 1.088 3.081-15.68 46.859 15.589 46.95-15.59 46.95 15.681 46.859-1.088 3.082L96.8 363l.725-2.176-15.68-46.859 15.68-46.859-15.68-46.859 15.68-46.859-.725-2.175z"/><path d="M109.943 158.07l2.809-.997 5.529 16.224-15.68 46.859 15.589 46.95-15.589 46.95 15.68 46.859-5.529 16.224-2.809-.997 5.166-15.317-15.68-46.86 15.68-46.859-15.68-46.859 15.68-46.859-5.166-15.318z"/><path d="M123.175 144.837l2.81-.997 9.879 29.457-15.68 46.859 15.589 46.95-15.589 46.95 15.68 46.859-9.879 29.457-2.81-.997 9.517-28.55-15.68-46.86 15.68-46.859-15.68-46.859 15.68-46.859-9.517-28.551z"/><path d="M136.317 131.695l2.81-.997 14.321 42.599-15.681 46.859 15.59 46.95-15.59 46.95 15.681 46.859-14.321 42.599-2.81-.997 13.958-41.692-15.68-46.86 15.68-46.859-15.68-46.859 15.68-46.859-13.958-41.693z"/><path d="M157.98 109.127l2.9.906-5.529 16.405 15.681 46.859-15.681 46.86 15.59 46.949-15.59 46.95 15.681 46.859-15.681 46.859 5.529 16.406-2.9.906-5.71-17.312 15.499-46.859-15.59-46.95 15.68-46.859-15.68-46.859 15.59-46.95-15.499-46.859 5.71-17.311z"/><path d="M184.355 82.751l2.9.907-14.321 42.78 15.681 46.859-15.681 46.859 15.59 46.95-15.59 46.95 15.681 46.859-15.681 46.859 14.321 42.781-2.9.906-14.502-43.687 15.499-46.859-15.59-46.95 15.68-46.859-15.68-46.859 15.59-46.95-15.499-46.859 14.502-43.687z"/><path d="M199.31 68.703l2.809-.998 4.079 11.874-15.68 46.859 15.68 46.859-15.68 46.859 15.589 46.95-15.589 46.95 15.68 46.859-15.68 46.859 15.68 46.859-4.079 11.874-2.809-.997 3.625-10.877-15.499-46.859 15.499-46.859-15.589-46.95 15.68-46.859-15.68-46.859 15.589-46.95-15.499-46.859 15.499-46.86-3.625-10.876z"/><path d="M212.543 55.47l2.81-.997 8.429 25.106-15.68 46.859 15.68 46.859-15.68 46.859 15.589 46.95-15.589 46.95 15.68 46.859-15.68 46.859 15.68 46.859-8.429 25.107-2.81-.997 7.976-24.11-15.499-46.859 15.499-46.859-15.589-46.95 15.68-46.859-15.68-46.859 15.589-46.95-15.499-46.859 15.499-46.859-7.976-24.11z"/><path d="M225.685 42.327l2.81-.997 12.871 38.249-15.681 46.859 15.68 46.859-15.68 46.859 15.59 46.95-15.59 46.95 15.68 46.859-15.68 46.859 15.68 46.859-12.87 38.249-2.81-.997 12.418-37.252-15.59-46.949 15.59-46.769-15.59-46.95 15.68-46.859-15.68-46.859 15.59-46.95-15.59-46.768 15.59-46.95-12.418-37.252z"/><path d="M242.997 24.11l2.809.996-2.538 7.614 15.681 46.859-15.681 46.859 15.681 46.859-15.681 46.859 15.59 46.95-15.59 46.95 15.681 46.859-15.681 46.859 15.681 46.859-15.681 46.86 2.538 7.613-2.809.997-2.901-8.52 15.59-46.95-15.59-46.949 15.59-46.769-15.59-46.95 15.68-46.859-15.68-46.859 15.59-46.95-15.59-46.768 15.59-46.95-15.59-46.95 2.901-8.52z"/><path d="M267.469 3.263l2.9.906-9.517 28.55 15.681 46.86-15.681 46.859 15.681 46.859-15.681 46.859 15.59 46.95-15.59 46.95 15.681 46.859-15.681 46.859 15.68 46.859-15.68 46.86 9.517 28.55-2.9.906-9.789-29.366 15.59-46.95-15.59-46.949 15.59-46.769-15.59-46.95 15.68-46.859-15.68-46.859 15.59-46.95-15.59-46.768 15.59-46.95-15.59-46.95 9.789-29.366z"/><path d="M280.702 16.496l2.81.816-5.076 15.408 15.68 46.859-15.68 46.859 15.68 46.859-15.68 46.859 15.589 46.95-15.589 46.95 15.68 46.859-15.68 46.859 15.68 46.859-15.68 46.86 5.076 15.408-2.81.816-5.438-16.134 15.589-46.95-15.589-46.949 15.589-46.769-15.589-46.95 15.68-46.859-15.68-46.859 15.589-46.95-15.589-46.768 15.589-46.95-15.589-46.95 5.438-16.133z"/><path d="M293.844 29.638l2.901.906-.726 2.176L311.7 79.579l-15.681 46.859 15.681 46.859-15.681 46.859 15.59 46.95-15.59 46.95 15.681 46.859-15.681 46.859 15.681 46.859-15.681 46.86.725 2.175-2.9.906-.997-2.991 15.59-46.95-15.59-46.949 15.59-46.769-15.59-46.95 15.68-46.859-15.68-46.859 15.59-46.95-15.59-46.768 15.59-46.95-15.59-46.95.997-2.99z"/><path d="M317.681 54.382l2.81-.997 8.792 26.194-15.68 46.859 15.589 46.95-15.589 46.768 15.589 46.95-15.589 46.95 15.589 46.769-15.589 46.949 15.68 46.859-8.792 26.194-2.81-.997 8.339-25.197-15.59-46.949 15.59-46.769-15.59-46.95 15.681-46.859-15.68-46.859 15.589-46.95-15.589-46.768 15.589-46.95-8.339-25.197z"/><path d="M343.694 79.488l2.901.907-15.409 46.043 15.59 46.95-15.59 46.768 15.59 46.95-15.59 46.95 15.59 46.768-15.59 46.95 15.409 46.044-2.901.906-15.68-47.04 15.59-46.769-15.59-46.95 15.68-46.859-15.68-46.859 15.59-46.95-15.59-46.768 15.68-47.04z"/><path d="M356.837 92.63l2.9.907-10.967 32.901 15.589 46.95-15.589 46.768 15.589 46.95-15.589 46.95 15.589 46.768-15.589 46.95 10.967 32.901-2.9.907-11.239-33.898 15.589-46.769-15.589-46.95 15.68-46.859-15.68-46.859 15.589-46.95-15.589-46.768 11.239-33.898z"/><path d="M370.07 105.864l2.9.906-6.617 19.668 15.59 46.95-15.59 46.768 15.59 46.95-15.59 46.95 15.59 46.768-15.59 46.95 6.617 19.668-2.9.907-6.889-20.665 15.59-46.769-15.59-46.95 15.68-46.859-15.68-46.859 15.59-46.95-15.59-46.768 6.889-20.665z"/><path d="M383.212 119.006l2.9.906-2.175 6.526 15.589 46.95-15.589 46.768 15.589 46.95-15.589 46.95 15.589 46.768-15.589 46.95 2.175 6.526-2.9.906-2.447-7.522 15.589-46.769-15.589-46.95 15.68-46.859-15.68-46.859 15.589-46.95-15.589-46.768 2.447-7.523z"/><path d="M402.608 139.309l2.9-.907 11.602 34.986-15.59 46.768 15.59 46.95-15.59 46.95 15.59 46.769-11.602 34.985-2.9-.906 11.33-33.989-15.59-46.95 15.68-46.859-15.68-46.859 15.59-46.95-11.33-33.988z"/><path d="M428.983 165.684l2.901-.907 2.809 8.611-15.589 46.768 15.589 46.95-15.589 46.95 15.589 46.769-2.809 8.61-2.901-.906 2.538-7.614-15.589-46.95 15.68-46.859-15.68-46.859 15.589-46.95-2.538-7.613z"/><path d="M446.204 181.998l2.901.907-12.418 37.251 15.59 46.95-15.59 46.95 12.418 37.252-2.901.906-12.689-38.249 15.68-46.859-15.68-46.859 12.689-38.249z"/><path d="M459.437 195.231l2.901.907-8.067 24.018 15.589 46.95-15.589 46.95 8.067 24.019-2.901.906-8.338-25.016 15.68-46.859-15.68-46.859 8.338-25.016z"/><path d="M472.58 208.374l2.9.906-3.625 10.876 15.589 46.95-15.589 46.95 3.625 10.876-2.9.907-3.898-11.874 15.68-46.859-15.68-46.859 3.898-11.873zm15.045 15.952l2.81-.997 14.592 43.777-14.592 43.778-2.81-.997 14.321-42.781-14.321-42.78zM514 250.701l2.81-.997 5.801 17.402-5.801 17.402-2.81-.997 5.529-16.405L514 250.701z"/></g><defs><clipPath id="clip0"><path transform="rotate(135 534.212 267.106)" fill="#fff" d="M534.212 267.106h377.745v377.745H534.212z"/></clipPath></defs></svg>

<svg width="535" height="535" viewBox="0 0 535 535" fill="none" xmlns="http://www.w3.org/2000/svg">
<g clip-path="url(#clip0)">
<path d="M7.43206 260.58L10.2418 259.583L12.689 267.106L10.2418 274.629L7.43208 273.632L9.60737 267.106L7.43206 260.58Z" fill="#EFEAE1"/>
<path d="M20.5743 247.438L23.3841 246.441L30.2725 267.106L23.3841 287.771L20.5743 286.774L27.1908 267.106L20.5743 247.438Z" fill="#EFEAE1"/>
<path d="M33.8078 234.205L36.6175 233.208L47.8565 267.106L36.6175 301.004L33.8078 300.007L44.7748 267.106L33.8078 234.205Z" fill="#EFEAE1"/>
<path d="M46.9502 221.063L49.7599 220.066L65.44 267.106L49.7599 314.147L46.9501 313.15L62.3584 267.106L46.9502 221.063Z" fill="#EFEAE1"/>
<path d="M73.0531 194.053L75.8628 195.05L67.4336 220.156L83.0231 267.106L67.4336 314.056L75.8628 339.162L73.0531 340.159L64.2613 313.965L79.9414 267.106L64.2613 220.247L73.0531 194.053Z" fill="#EFEAE1"/>
<path d="M96.8002 171.213L99.6099 170.216L100.698 173.297L85.0175 220.156L100.607 267.106L85.0174 314.056L100.698 360.915L99.6099 363.997L96.8002 363L97.5253 360.824L81.8452 313.965L97.5253 267.106L81.8452 220.247L97.5253 173.388L96.8002 171.213Z" fill="#EFEAE1"/>
<path d="M109.943 158.07L112.752 157.073L118.281 173.297L102.601 220.156L118.19 267.106L102.601 314.056L118.281 360.915L112.752 377.139L109.943 376.142L115.109 360.825L99.4287 313.965L115.109 267.106L99.4287 220.247L115.109 173.388L109.943 158.07Z" fill="#EFEAE1"/>
<path d="M123.175 144.837L125.985 143.84L135.864 173.297L120.184 220.156L135.773 267.106L120.184 314.056L135.864 360.915L125.985 390.372L123.175 389.375L132.692 360.825L117.012 313.965L132.692 267.106L117.012 220.247L132.692 173.388L123.175 144.837Z" fill="#EFEAE1"/>
<path d="M136.317 131.695L139.127 130.698L153.448 173.297L137.767 220.156L153.357 267.106L137.767 314.056L153.448 360.915L139.127 403.514L136.317 402.517L150.275 360.825L134.595 313.965L150.275 267.106L134.595 220.247L150.275 173.388L136.317 131.695Z" fill="#EFEAE1"/>
<path d="M157.98 109.127L160.88 110.033L155.351 126.438L171.032 173.297L155.351 220.157L170.941 267.106L155.351 314.056L171.032 360.915L155.351 407.774L160.88 424.18L157.98 425.086L152.27 407.774L167.769 360.915L152.179 313.965L167.859 267.106L152.179 220.247L167.769 173.297L152.27 126.438L157.98 109.127Z" fill="#EFEAE1"/>
<path d="M184.355 82.7513L187.255 83.6576L172.934 126.438L188.615 173.297L172.934 220.156L188.524 267.106L172.934 314.056L188.615 360.915L172.934 407.774L187.255 450.555L184.355 451.461L169.853 407.774L185.352 360.915L169.762 313.965L185.442 267.106L169.762 220.247L185.352 173.297L169.853 126.438L184.355 82.7513Z" fill="#EFEAE1"/>
<path d="M199.31 68.7025L202.119 67.7055L206.198 79.579L190.518 126.438L206.198 173.297L190.518 220.156L206.107 267.106L190.518 314.056L206.198 360.915L190.518 407.774L206.198 454.633L202.119 466.507L199.31 465.51L202.935 454.633L187.436 407.774L202.935 360.915L187.346 313.965L203.026 267.106L187.346 220.247L202.935 173.297L187.436 126.438L202.935 79.5789L199.31 68.7025Z" fill="#EFEAE1"/>
<path d="M212.543 55.4697L215.353 54.4727L223.782 79.579L208.102 126.438L223.782 173.297L208.102 220.156L223.691 267.106L208.102 314.056L223.782 360.915L208.102 407.774L223.782 454.633L215.353 479.74L212.543 478.743L220.519 454.633L205.02 407.774L220.519 360.915L204.93 313.965L220.61 267.106L204.93 220.247L220.519 173.297L205.02 126.438L220.519 79.579L212.543 55.4697Z" fill="#EFEAE1"/>
<path d="M225.685 42.3273L228.495 41.3303L241.366 79.579L225.685 126.438L241.365 173.297L225.685 220.156L241.275 267.106L225.685 314.056L241.365 360.915L225.685 407.774L241.365 454.633L228.495 492.882L225.685 491.885L238.103 454.633L222.513 407.684L238.103 360.915L222.513 313.965L238.193 267.106L222.513 220.247L238.103 173.297L222.513 126.529L238.103 79.579L225.685 42.3273Z" fill="#EFEAE1"/>
<path d="M242.997 24.1094L245.806 25.1064L243.268 32.7199L258.949 79.579L243.268 126.438L258.949 173.297L243.268 220.156L258.858 267.106L243.268 314.056L258.949 360.915L243.268 407.774L258.949 454.633L243.268 501.493L245.806 509.106L242.997 510.103L240.096 501.583L255.686 454.633L240.096 407.684L255.686 360.915L240.096 313.965L255.776 267.106L240.096 220.247L255.686 173.297L240.096 126.529L255.686 79.579L240.096 32.6292L242.997 24.1094Z" fill="#EFEAE1"/>
<path d="M267.469 3.26284L270.369 4.16923L260.852 32.7198L276.533 79.5789L260.852 126.438L276.533 173.297L260.852 220.156L276.442 267.106L260.852 314.056L276.533 360.915L260.852 407.774L276.532 454.633L260.852 501.493L270.369 530.043L267.469 530.949L257.68 501.583L273.27 454.633L257.68 407.684L273.27 360.915L257.68 313.965L273.36 267.106L257.68 220.247L273.27 173.297L257.68 126.529L273.27 79.5789L257.68 32.6291L267.469 3.26284Z" fill="#EFEAE1"/>
<path d="M280.702 16.4958L283.512 17.3116L278.436 32.7198L294.116 79.5789L278.436 126.438L294.116 173.297L278.436 220.156L294.025 267.106L278.436 314.056L294.116 360.915L278.436 407.774L294.116 454.633L278.436 501.493L283.512 516.901L280.702 517.717L275.264 501.583L290.853 454.633L275.264 407.684L290.853 360.915L275.264 313.965L290.944 267.106L275.264 220.247L290.853 173.297L275.264 126.529L290.853 79.5789L275.264 32.6291L280.702 16.4958Z" fill="#EFEAE1"/>
<path d="M293.844 29.6381L296.745 30.5445L296.019 32.7198L311.7 79.5789L296.019 126.438L311.7 173.297L296.019 220.156L311.609 267.106L296.019 314.056L311.7 360.915L296.019 407.774L311.7 454.633L296.019 501.493L296.744 503.668L293.844 504.574L292.847 501.583L308.437 454.633L292.847 407.684L308.437 360.915L292.847 313.965L308.527 267.106L292.847 220.247L308.437 173.297L292.847 126.529L308.437 79.5789L292.847 32.6291L293.844 29.6381Z" fill="#EFEAE1"/>
<path d="M317.681 54.382L320.491 53.385L329.283 79.579L313.603 126.438L329.192 173.388L313.603 220.156L329.192 267.106L313.603 314.056L329.192 360.825L313.603 407.774L329.283 454.633L320.491 480.827L317.681 479.83L326.02 454.633L310.43 407.684L326.02 360.915L310.43 313.965L326.111 267.106L310.431 220.247L326.02 173.297L310.431 126.529L326.02 79.579L317.681 54.382Z" fill="#EFEAE1"/>
<path d="M343.694 79.4883L346.595 80.3946L331.186 126.438L346.776 173.388L331.186 220.156L346.776 267.106L331.186 314.056L346.776 360.824L331.186 407.774L346.595 453.818L343.694 454.724L328.014 407.684L343.604 360.915L328.014 313.965L343.694 267.106L328.014 220.247L343.604 173.297L328.014 126.529L343.694 79.4883Z" fill="#EFEAE1"/>
<path d="M356.837 92.6306L359.737 93.537L348.77 126.438L364.359 173.388L348.77 220.156L364.359 267.106L348.77 314.056L364.359 360.824L348.77 407.774L359.737 440.675L356.837 441.582L345.598 407.684L361.187 360.915L345.598 313.965L361.278 267.106L345.598 220.247L361.187 173.297L345.598 126.529L356.837 92.6306Z" fill="#EFEAE1"/>
<path d="M370.07 105.864L372.97 106.77L366.353 126.438L381.943 173.388L366.353 220.156L381.943 267.106L366.353 314.056L381.943 360.824L366.353 407.774L372.97 427.442L370.07 428.349L363.181 407.684L378.771 360.915L363.181 313.965L378.861 267.106L363.181 220.247L378.771 173.297L363.181 126.529L370.07 105.864Z" fill="#EFEAE1"/>
<path d="M383.212 119.006L386.112 119.912L383.937 126.438L399.526 173.388L383.937 220.156L399.526 267.106L383.937 314.056L399.526 360.824L383.937 407.774L386.112 414.3L383.212 415.206L380.765 407.684L396.354 360.915L380.765 313.965L396.445 267.106L380.765 220.247L396.354 173.297L380.765 126.529L383.212 119.006Z" fill="#EFEAE1"/>
<path d="M402.608 139.309L405.508 138.402L417.11 173.388L401.52 220.156L417.11 267.106L401.52 314.056L417.11 360.825L405.508 395.81L402.608 394.904L413.938 360.915L398.348 313.965L414.028 267.106L398.348 220.247L413.938 173.297L402.608 139.309Z" fill="#EFEAE1"/>
<path d="M428.983 165.684L431.884 164.777L434.693 173.388L419.104 220.156L434.693 267.106L419.104 314.056L434.693 360.825L431.884 369.435L428.983 368.529L431.521 360.915L415.932 313.965L431.612 267.106L415.932 220.247L431.521 173.297L428.983 165.684Z" fill="#EFEAE1"/>
<path d="M446.204 181.998L449.105 182.905L436.687 220.156L452.277 267.106L436.687 314.056L449.105 351.308L446.204 352.214L433.515 313.965L449.195 267.106L433.515 220.247L446.204 181.998Z" fill="#EFEAE1"/>
<path d="M459.437 195.231L462.338 196.138L454.271 220.156L469.86 267.106L454.271 314.056L462.338 338.075L459.437 338.981L451.099 313.965L466.779 267.106L451.099 220.247L459.437 195.231Z" fill="#EFEAE1"/>
<path d="M472.58 208.374L475.48 209.28L471.855 220.156L487.444 267.106L471.855 314.056L475.48 324.932L472.58 325.839L468.682 313.965L484.362 267.106L468.682 220.247L472.58 208.374Z" fill="#EFEAE1"/>
<path d="M487.625 224.326L490.435 223.329L505.027 267.106L490.435 310.884L487.625 309.887L501.946 267.106L487.625 224.326Z" fill="#EFEAE1"/>
<path d="M514 250.701L516.81 249.704L522.611 267.106L516.81 284.508L514 283.511L519.529 267.106L514 250.701Z" fill="#EFEAE1"/>
</g>
<defs>
<clipPath id="clip0">
<rect x="534.212" y="267.106" width="377.745" height="377.745" transform="rotate(135 534.212 267.106)" fill="white"/>
</clipPath>
</defs>
</svg>
